!!!OTL: WAS WIRD WOHL MEIN SCHAETZLEIN DENKEN
!!!ARE: Europa, Mitteleuropa, Deutschland, Rheinpfalz
!!!SCT: E0514A
!!!YEM: Copyright 1995, estate of Helmut Schaffrath.
**kern
*ICvox
*Ivox
*M4/4
*k[f#]
*G:
=1
{4d
4g
4e
4a
=2
4f#
4d
4g
4b}
=3
{4d
4g
4d
4a
=4
4f#
4d
4g
4r}
=5
{4d
4g
4e
4a
=6
4f#
4d
4g
4b}
=7
{4d
4g
4d
4a
=8
4f#
4d
4g
4r}
=9
{4d
8.cc
16b
4a
4r
=10
4d
8.b
16a
4g
4r}
=11
{4e
4e
4d
8g
8b
=12
4dd
4cc
4b
4r}
==
!!!AGN: Liebes - Lied
!!!ONB: ESAC (Essen Associative Code) Database: ERK1
!!!AMT: simple quadruple
!!!AIN: vox
!!!EED: Helmut Schaffrath
!!!EEV: 1.0
*-
